src/assets/icons/fa/clone.svg

<?xml version="1.0" encoding="utf-8"?>
<svg width="1792" height="1792" viewBox="0 0 1792 1792" xmlns="http://www.w3.org/2000/svg"><path d="M1664 1632v-1088q0-13-9.5-22.5t-22.5-9.5h-1088q-13 0-22.5 9.5t-9.5 22.5v1088q0 13 9.5 22.5t22.5 9.5h1088q13 0 22.5-9.5t9.5-22.5zm128-1088v1088q0 66-47 113t-113 47h-1088q-66 0-113-47t-47-113v-1088q0-66 47-113t113-47h1088q66 0 113 47t47 113zm-384-384v160h-128v-160q0-13-9.5-22.5t-22.5-9.5h-1088q-13 0-22.5 9.5t-9.5 22.5v1088q0 13 9.5 22.5t22.5 9.5h160v128h-160q-66 0-113-47t-47-113v-1088q0-66 47-113t113-47h1088q66 0 113 47t47 113z"/></svg>

<svg xmlns="http://www.w3.org/2000/svg" viewBox="0 0 1792 1792"><path d="M1664 1632V544q0-13-9.5-22.5T1632 512H544q-13 0-22.5 9.5T512 544v1088q0 13 9.5 22.5t22.5 9.5h1088q13 0 22.5-9.5t9.5-22.5zm128-1088v1088q0 66-47 113t-113 47H544q-66 0-113-47t-47-113V544q0-66 47-113t113-47h1088q66 0 113 47t47 113zm-384-384v160h-128V160q0-13-9.5-22.5T1248 128H160q-13 0-22.5 9.5T128 160v1088q0 13 9.5 22.5t22.5 9.5h160v128H160q-66 0-113-47T0 1248V160Q0 94 47 47T160 0h1088q66 0 113 47t47 113z"/></svg>
